X: 8190
T: Cooley's
R: reel
M: 4/4
K: Edorian
|:EBBA [E2B2] EB|B2 AB dBAG|F/E/D AD BDAD|F/E/D AD BAGF|
EBBA B2 EB|B2 AB defg|afge dBAF|1 DEFD E3D:|2 DEFD E2gf||
|:eBB2 eBgf|eBB2 gedB|A2FA DAFA|A2FA defg|
eBB2 egfd|eBB2 defg|afge dBAF|1 DEFD E2gf:|2 DEFD E3D||

